X: 7714
T:Reinl\"ander fr Ringnes (Bergen polka)
R:Reinl\"ander
R:Polka
O:Norway
M:4/4
K:D
D>F ED F2F2|D>F ED f2f2|1\
 g>f ed cBA2|A>B AF GF EF :|2\
 g>f ed cA Bc|d2dc d4::
g2g2 g2fe|f2e2 e>f ed|c2EF GA Bc|1\
 d>c de fd ef:|2 d2d2 d4:|
